icons/lines/brush-three.svg

<svg xmlns="http://www.w3.org/2000/svg" width="24" height="24" viewBox="0 0 24 24" fill="none" stroke="currentColor" stroke-width="2" stroke-linecap="round" stroke-linejoin="round" >
  <path d="M10 16C10 14.34 10 13 13 13H17C20 13 20 12 20 10V8C20 6 20 5 17 5H16"/>
  <path d="M12.0002 2H8.0002C7.3502 3.95 7.3502 6.05 8.0002 8H12.0002C12.6502 6.05 12.6502 3.95 12.0002 2Z"/>
  <path d="M8 2H7C5 2 4 3 4 5C4 7 5 8 7 8H8C7 6 7 4 8 2Z"/>
  <path d="M13 2H12C13 4 13 6 12 8H13C15 8 16 7 16 5C16 3 15 2 13 2Z"/>
  <path d="M9.5 22H10.5C12 22 12 21 12 20.5V17.5C12 17 12 16 10.5 16H9.5C8 16 8 17 8 17.5V20.5C8 21 8 22 9.5 22Z"/>
  </svg>

<svg xmlns="http://www.w3.org/2000/svg" width="24" height="24" viewBox="0 0 24 24" fill="none" stroke="currentColor" stroke-width="2" stroke-linecap="round" stroke-linejoin="round">
  <path d="M10 16c0-1.66 0-3 3-3h4c3 0 3-1 3-3V8c0-2 0-3-3-3h-1" />
  <path d="M10.5 22c1.5 0 1.5-1 1.5-1.5v-3c0-.5 0-1.5-1.5-1.5h-1C8 16 8 17 8 17.5v3C8 21 8 22 9.5 22z" />
  <path d="M12 2q1.5 3 0 6a9.48 9.48 0 0 0 0-6" />
  <path d="M7 8Q4 8 4 5t3-3h6q3 0 3 3t-3 3z" />
  <path d="M8 2Q6.5 5 8 8a9.48 9.48 0 0 1 0-6" />
</svg>
